src/android-stopwatch.svg

<?xml version="1.0" encoding="utf-8"?>
<!-- Generated by IcoMoon.io -->
<!DOCTYPE svg PUBLIC "-//W3C//DTD SVG 1.1//EN" "http://www.w3.org/Graphics/SVG/1.1/DTD/svg11.dtd">
<svg version="1.1" xmlns="http://www.w3.org/2000/svg" xmlns:xlink="http://www.w3.org/1999/xlink" width="512" height="512" viewBox="0 0 512 512">
<path fill="#000000" d="M232 306.667h48v-130.667h-48v130.667z"></path>
<path fill="#000000" d="M407.67 170.271l30.786-30.786-33.942-33.941-30.785 30.786c-32.512-25.273-73.36-40.33-117.729-40.33-106.039 0-192 85.961-192 192s85.961 192 192 192 192-85.961 192-192c0-44.369-15.057-85.217-40.33-117.729zM362.066 394.066c-28.332 28.332-66 43.934-106.066 43.934s-77.735-15.602-106.066-43.934c-28.332-28.331-43.934-66-43.934-106.066s15.602-77.735 43.934-106.066c28.331-28.332 66-43.934 106.066-43.934s77.734 15.602 106.066 43.934c28.332 28.331 43.934 66 43.934 106.066s-15.602 77.735-43.934 106.066z"></path>
<path fill="#000000" d="M192 32h128v48h-128v-48z"></path>
</svg>

<?xml version="1.0" encoding="utf-8"?>
<!-- Generator: Adobe Illustrator 16.2.1, SVG Export Plug-In . SVG Version: 6.00 Build 0)  -->
<!DOCTYPE svg PUBLIC "-//W3C//DTD SVG 1.1//EN" "http://www.w3.org/Graphics/SVG/1.1/DTD/svg11.dtd">
<svg version="1.1" id="Layer_1" xmlns="http://www.w3.org/2000/svg" xmlns:xlink="http://www.w3.org/1999/xlink" x="0px" y="0px"
	 width="512px" height="512px" viewBox="0 0 512 512" enable-background="new 0 0 512 512" xml:space="preserve">
<g>
	<g id="Icon_7_">
		<g>
			<path d="M232,306.667h48V176h-48V306.667z"/>
		</g>
	</g>
	<g>
		<path d="M407.67,170.271l30.786-30.786l-33.942-33.941l-30.785,30.786C341.217,111.057,300.369,96,256,96
			C149.961,96,64,181.961,64,288s85.961,192,192,192s192-85.961,192-192C448,243.631,432.943,202.783,407.67,170.271z
			 M362.066,394.066C333.734,422.398,296.066,438,256,438s-77.735-15.602-106.066-43.934C121.602,365.735,106,328.066,106,288
			s15.602-77.735,43.934-106.066C178.265,153.602,215.934,138,256,138s77.734,15.602,106.066,43.934
			C390.398,210.265,406,247.934,406,288S390.398,365.735,362.066,394.066z"/>
		<rect x="192" y="32" width="128" height="48"/>
	</g>
</g>
</svg>
